dist/assets/img/questions/2/answers/3_1200.svg

<svg width="586" height="264" viewBox="0 0 586 264" fill="none" xmlns="http://www.w3.org/2000/svg">
<g filter="url(#filter0_di_1419_53965)">
<path fill-rule="evenodd" clip-rule="evenodd" d="M69.2006 28C65.1696 28 61.7682 30.9991 61.2635 34.9984L40.0641 202.998C39.4612 207.776 43.1855 212 48.0012 212H513.656C517.687 212 521.088 209.001 521.593 205.002L524.769 179.834C525.383 174.969 530.215 171.824 534.546 174.123C539.183 176.584 542.941 179.43 545.28 181.201C545.331 181.24 545.401 181.193 545.386 181.131C543.377 173.185 537.679 166.859 531.594 162.28C529.092 160.396 527.601 157.39 527.993 154.282L542.792 37.0016C543.395 32.2237 539.671 28 534.855 28H69.2006Z" fill="#FFF0CB"/>
</g>
<defs>
<filter id="filter0_di_1419_53965" x="0" y="0" width="585.389" height="264" filterUnits="userSpaceOnUse" color-interpolation-filters="sRGB">
<feFlood flood-opacity="0" result="BackgroundImageFix"/>
<feColorMatrix in="SourceAlpha" type="matrix" values="0 0 0 0 0 0 0 0 0 0 0 0 0 0 0 0 0 0 127 0" result="hardAlpha"/>
<feOffset dy="12"/>
<feGaussianBlur stdDeviation="20"/>
<feComposite in2="hardAlpha" operator="out"/>
<feColorMatrix type="matrix" values="0 0 0 0 1 0 0 0 0 1 0 0 0 0 1 0 0 0 1 0"/>
<feBlend mode="normal" in2="BackgroundImageFix" result="effect1_dropShadow_1419_53965"/>
<feBlend mode="normal" in="SourceGraphic" in2="effect1_dropShadow_1419_53965" result="shape"/>
<feColorMatrix in="SourceAlpha" type="matrix" values="0 0 0 0 0 0 0 0 0 0 0 0 0 0 0 0 0 0 127 0" result="hardAlpha"/>
<feOffset dy="-4"/>
<feGaussianBlur stdDeviation="4"/>
<feComposite in2="hardAlpha" operator="arithmetic" k2="-1" k3="1"/>
<feColorMatrix type="matrix" values="0 0 0 0 0.883659 0 0 0 0 0.635314 0 0 0 0 0.0558422 0 0 0 0.4 0"/>
<feBlend mode="normal" in2="shape" result="effect2_innerShadow_1419_53965"/>
</filter>
</defs>
</svg>

<svg width="586" height="264" viewBox="0 0 586 264" fill="none" xmlns="http://www.w3.org/2000/svg"><g filter="url(#filter0_di_1419_53965)"><path fill-rule="evenodd" clip-rule="evenodd" d="M69.2 28a8 8 0 00-7.937 6.998l-21.199 168c-.603 4.778 3.121 9.002 7.937 9.002h465.655a8 8 0 007.937-6.998l3.176-25.168c.614-4.865 5.446-8.01 9.777-5.711 4.637 2.461 8.395 5.307 10.734 7.078.051.039.121-.008.106-.07-2.009-7.946-7.707-14.272-13.792-18.851-2.502-1.884-3.993-4.89-3.601-7.998l14.799-117.28c.603-4.778-3.121-9.002-7.937-9.002H69.201z" fill="#FFF0CB"/></g><defs><filter id="filter0_di_1419_53965" x="0" y="0" width="585.389" height="264" filterUnits="userSpaceOnUse" color-interpolation-filters="sRGB"><feFlood flood-opacity="0" result="BackgroundImageFix"/><feColorMatrix in="SourceAlpha" values="0 0 0 0 0 0 0 0 0 0 0 0 0 0 0 0 0 0 127 0" result="hardAlpha"/><feOffset dy="12"/><feGaussianBlur stdDeviation="20"/><feComposite in2="hardAlpha" operator="out"/><feColorMatrix values="0 0 0 0 1 0 0 0 0 1 0 0 0 0 1 0 0 0 1 0"/><feBlend in2="BackgroundImageFix" result="effect1_dropShadow_1419_53965"/><feBlend in="SourceGraphic" in2="effect1_dropShadow_1419_53965" result="shape"/><feColorMatrix in="SourceAlpha" values="0 0 0 0 0 0 0 0 0 0 0 0 0 0 0 0 0 0 127 0" result="hardAlpha"/><feOffset dy="-4"/><feGaussianBlur stdDeviation="4"/><feComposite in2="hardAlpha" operator="arithmetic" k2="-1" k3="1"/><feColorMatrix values="0 0 0 0 0.883659 0 0 0 0 0.635314 0 0 0 0 0.0558422 0 0 0 0.4 0"/><feBlend in2="shape" result="effect2_innerShadow_1419_53965"/></filter></defs></svg>
